assets/icons/qvision/local_drink.svg

<svg xmlns="http://www.w3.org/2000/svg" height="24" viewBox="0 0 24 24" width="24"><path d="M0 0h24v24H0z" fill="none"/><path d="M3 2l2.01 18.23C5.13 21.23 5.97 22 7 22h10c1.03 0 1.87-.77 1.99-1.77L21 2H3zm9 17c-1.66 0-3-1.34-3-3 0-2 3-5.4 3-5.4s3 3.4 3 5.4c0 1.66-1.34 3-3 3zm6.33-11H5.67l-.44-4h13.53l-.43 4z"/></svg>

<svg width="24" height="24" viewBox="0 0 24 24" fill="none" xmlns="http://www.w3.org/2000/svg">
<g clip-path="url(#clip0_147_5392)">
<path d="M3 2L5.01 20.23C5.13 21.23 5.97 22 7 22H17C18.03 22 18.87 21.23 18.99 20.23L21 2H3ZM12 19C10.34 19 9 17.66 9 16C9 14 12 10.6 12 10.6C12 10.6 15 14 15 16C15 17.66 13.66 19 12 19ZM18.33 8H5.67L5.23 4H18.76L18.33 8Z" fill="#323232"/>
</g>
<defs>
<clipPath id="clip0_147_5392">
<rect width="24" height="24" fill="white"/>
</clipPath>
</defs>
</svg>
